X:104
T:Mrs. Fairley's Frenchman
R:reel
C: 2003, 2010 L.E. McCullough 
M:4/4
L:1/8
K:D
DE|:~F3F ~F2DE|F~A3 BAdB|AB~B2 BAdB|A~F3 EFDE|
~F3F ~F2DE|F~A3 BAdB|AB~B2 BAdf|1edBA d2DE:|2edBA d2de|]
|:~f3d e~A3|gabg a~f3|b~g3 a~f3|gfed eAce|
fAgA fAfe|d~B3 g~B3|e~f3 gfed|1edBA d2de:|2edBA d2DE|]

